X: 277
T: Beni Çün Kendine
C: Ebûbekir Ağa
O: Turkey
F: http://compmusic.upf.edu/node/140
N: mahur--yuruksemai--yuruksemai--beni_cun--ebubekir_aga
N: makam= mahur
N: form= yuruksemai
N: usul= yuruksemai = 6/8
M: 6/8
L: 1/16
K: C ^9/8f   
Q: 1/4=96
%%MIDI tuningsystem comma53
g6f2 e4f4 g6z2  | d8 e4f4 g6z2  | g8 g4g2f2 f2a2g2f2  | \
w:   |   |   | 
e2f2g2a4g2f2f2 g2f3ed2  | 
w:   | 
e2d4f2 e8 e8  | z4f4 g6f2 b2agg6z2g4 a4b4 c'4d'8c'6b2b3a g4a2g2  | 
w:   |   | 
f2b2agf4a2g8g8z4 a6g2 f4g4  | a8 g6f2 b2a2g2f2  | \
w:   |   | 
e6z2 e6a2 a2g2g2=f2  | 
w:   | 
g2=f2e4 d2d6 c2g2f2e2  | d2c3BA2 B2c12c8z4G4A6G2c2  | 
w:   |   | 
B^AB6 z2G4=A4B4c4d6 z2c6 B2B3AG4A2G2F2 B2AGF4 G8  | 
w:   | 
G8 z4g8g2f2  | g2a2b2a2 g2f2e6z2e2f2  | \
w:   |   | 
d4e4 f2e2f2d4e2f2e4f4g6z2g4f2e2g4g2f2f2 e2g4g2 f2f2e2g4f2g2e8e8e2  | 
w:   | 
f2d4e3fe2f2d4e2f2e4f4g6z2g4f2e2g4g2f2f2 e2g4g2 f2f2e2g4f2g2e8g4f6  | 
w:   | 
g2e2f2d6z2g4f6  | g2e2f2d6z2a4agaba2  | \
w:   |   | 
g2g4gf gag2=f2f4fefgf2  | 
w:   | 
e2e4ed e=fe2d2d6e2c4g2f2e2 d2c2B2B12B8z4G12A12B4c4B4A4G6z2G12G12B4c4B4A4^G2 A2B3/2c/BAG4A8A12d6^c2B4c4d8d3cg2f2f2  | 
w:   | 
e2d2^cBc2 d2c4d4e4f4g8g6 f2g2f2g2  | \
w:   | 
a2b2a2g2 f2e12e8z4f4g6f2b2  | 
w:   | 
agg6 z2g4a4b4c'4d'8c'6 b2b3ag4a2g2f2 b2agf4 a2g8g8z4a6g2f4g4a8g6f2b2  | 
w:   | 
a2g2f2e6z2e6a2a2  | g2g2=f2g2 f2e4d2 d6c2  | \
w:   |   | 
g2=f2e2d2 c3BA2B2 c12c8z4 G4A6G2c2B^A B6z2 G4=A4  | 
w:   | 
B4c4 d6z2 c6B2  | B3AG4 A2G2F2B2 AGF4G8G8z4|
w:   |   | 


